X:1
T:529 - Vai Buscar
T:Letra: Alexcenah Thomas
T:Trad.: SalomÃ£o Luiz Ginsburg (1867-1927)
T:MÃºsica: William Augustus Ogden (1841-1897)
M:4/4
L:1/8
Q:1/4=100
K:Emaj
V:1
"E"B,2 B,3/2C/2 B,2 G2 | "B"G2 F2 F3z | "B7"B,2 B,3/2C/2 B,2 F2 | "E"F2 E2 E3z | B,2 B,3/2C/2 B,2 G2 | "F#m"G2 F2 A3z | A2 G3/2F/2 "E/B"E2 B,2 | "B7"G3F "E"E3z || "E"G2 B,2 G2 z2 | "A"A2 C2 A2 z2 | "E"G2 G2 GF E3/2G/2 | "B"F2 "(F#7)"F2 "(B)"F2 "(B7)"z2 | "E"G2 B,2 G2 z2 | "A"A2 C2 A2 z2 | "E"G2 G2 GF E3/2G/2 | "B7"F2 F2 "E"E3z |]
w:1.~Ou-Ã§oo cla-mor do bom Pas-tor Pe-lo de-ser-toa-bra-sa-dor, Seus cor-dei-ri-nhos a cha-mar, Mui de-se-jo-so deos sal-var. Vai bus-car!  Vai bus-car!    Meus cor-dei_ri-nhos vai bus-car!    Vai bus-car!  Vai bus-car!    Pa-ra que os pos-saa-ben-Ã§o-ar.
w:2.~Quem nÃ£o de-se-jaau-xi-li-ar Seus cor-dei-ri-nhos a guar-dar Een-ca-mi-nhÃ¡-los a Je-sus. Fon-te de vi-da,a-mor e luz?
w:3.~Pe-lo de-ser-toa pa-de-cer, Pe-las es-tra-das a mor-rer, Seus cor-dei-ri-nhos vai bus-car, Pa-ra queos pos-saa-ben-Ã§o-ar.
W:
W:
W:1. OuÃ§o o clamor do bom Pastor
W:Pelo deserto abrasador,
W:Seus cordeirinhos a chamar,
W:Mui desejoso de os salvar.
W:
W:(Estribilho)
W:Vai buscar!  Vai buscar!
W:Meus cordeirinhos vai buscar!
W:Vai buscar!  Vai buscar!
W:Para que os possa abenÃ§oar.
W:
W:
W:
W:2. Quem nÃ£o deseja auxiliar
W:Seus cordeirinhos a guardar
W:E encaminhÃ¡-los a Jesus.
W:Fonte de vida, amor e luz?
W:
W:3. Pelo deserto a padecer,
W:Pelas estradas a morrer,
W:Seus cordeirinhos vai buscar,
W:Para que os possa abenÃ§oar.
W:
W:

